Oxford/img/big-abstr.svg

<svg width="1440" height="1733" viewBox="0 0 1440 1733" fill="none" xmlns="http://www.w3.org/2000/svg">
<mask id="mask0" mask-type="alpha" maskUnits="userSpaceOnUse" x="-864" y="0" width="3072" height="1733">
<rect x="-864" width="3072" height="1733" fill="#C4C4C4"/>
</mask>
<g mask="url(#mask0)">
<path d="M-505.847 135.991C-458.13 181.884 -420.035 231.783 -388.129 283.909C-365.246 321.316 -346.11 360.629 -325.729 398.442C-291.462 461.959 -274.57 531.057 -254.647 598.241C-232.198 673.953 -207.905 750.758 -169.515 822.668C-148.171 862.616 -123.701 901.564 -83.3734 934.068C-39.4626 969.451 15.9839 993.554 77.2804 1010.1C203.445 1044.1 341.086 1055.11 474.146 1065.61C543.888 1071.14 613.76 1075.85 683.491 1081.46C742.227 1086.2 806.343 1087.97 862.294 1102.63C973.011 1131.61 1060.54 1202.47 1134.99 1265.14C1160.12 1286.31 1185.95 1307.12 1211.71 1327.81C1272.94 1376.93 1333 1429 1362 1503C1375.79 1538.19 1437.97 1701.92 1448 1702C1489.5 1736.5 1546.96 1665.91 1555 1640.5C1592 1523.5 1566 1460 1555 1443C1538 1425 1535.67 1424.34 1521 1409C1506.33 1393.66 1505.24 1397.13 1499 1391C1430.7 1323.8 1325.77 1263.21 1238.04 1208C1145.56 1149.72 1045.87 1094.77 938.228 1053.41C901.53 1039.33 862.717 1026.02 821.931 1018.49C783.953 1011.5 742.99 1010.36 704.002 1008.51C614.806 1004.28 525.152 1004.07 436.014 1001.73C323.7 998.847 205.77 995.375 98.7306 967.859C45.0579 954.063 -4.4444 931.739 -42.3406 900.811C-77.3823 872.203 -93.5229 834.253 -103.05 797.549C-125.322 711.886 -115.89 623.021 -122.562 535.961C-125.886 492.541 -132.535 448.9 -148.558 406.878C-163.289 368.234 -188.24 332.122 -213.332 296.722C-245.049 251.939 -280.537 207.392 -323.849 168.731C-338.42 155.853 -354.883 144.151 -372.952 133.831C-413.891 110.253 -458.248 87.5314 -507.715 74.269C-525.594 69.4756 -545.435 65.563 -563.737 64.064C-590.297 61.879 -566.322 83.9829 -560.424 89.3014C-542.804 105.198 -523.362 120.001 -505.847 135.965" fill="#979797"/>
<path d="M-349.988 111.15C-286.76 153.297 -230.405 199.856 -185.857 252.374C-156.605 286.859 -128.292 324.798 -113.372 363.347C-88.1378 428.54 -94.5757 500.507 -96.9253 568.969C-99.5215 644.457 -103.281 721.191 -85.9996 794.622C-76.6717 834.255 -56.1363 870.822 -13.8672 898.999C25.8174 925.474 73.8548 943.246 125.616 953.872C234.567 976.224 351.858 974.302 464.063 973.396C524.342 972.905 584.632 971.94 644.911 972.702C699.163 973.387 757.01 973.193 809.97 982.608C957.454 1008.85 1094.58 1077.59 1217.62 1138.67C1261.02 1160.22 1304.9 1181.64 1347.91 1203.52C1417.22 1238.77 1483.01 1277.9 1551.94 1313.8C1611.51 1344.84 1676.17 1372.72 1748.7 1383.45C1764.36 1385.77 1781.29 1387.77 1796.66 1386.56C1818.21 1384.87 1850.18 1379.19 1853.75 1359.57C1853.97 1358.45 1854.04 1357.31 1853.98 1356.18C1852.8 1336.82 1827.05 1319.31 1809.84 1306.51C1798.91 1298.5 1787.38 1290.93 1775.31 1283.83C1651.5 1209.78 1510.64 1147.25 1370.17 1089.09C1226.59 1029.74 1078.1 973.701 924.665 930.538C839.21 906.501 757.316 890.118 664.753 890.744C586.935 891.295 509.352 898.203 432.144 903.444C336.433 909.947 234.367 917.067 140.56 897.018C90.7248 886.367 44.2969 865.835 9.40552 837.946C-25.8383 809.837 -35.9064 771.136 -35.4835 735.254C-34.4849 649.978 7.20865 564.227 28.6956 478.968C38.8811 438.556 46.4585 397.154 42.241 356.015C38.141 316.052 18.1812 281.805 -6.64221 246.795C-40.3941 199.144 -80.3371 152.688 -128.492 112.657C-144.748 99.1841 -163.003 87.0353 -182.932 76.4285C-235.798 48.2176 -296.617 23.2155 -364.273 19.2023C-385.643 17.9323 -410.678 18.6181 -430.191 25.4422C-485.43 44.7547 -369.783 98.5181 -349.988 111.15Z" fill="#00237C"/>
<path d="M-192.789 26.1865C-119.45 71.7734 -51.0462 121.484 0.659119 179.822C31.8468 215.02 63.4341 255.365 72.1417 296.228C87.0892 366.327 55.5843 442.285 31.3885 512.045C5.28909 587.276 -33.7366 669.533 -22.667 745.399C-17.2144 782.933 3.18567 813.271 46.0893 837.749C83.9113 859.222 128.672 873.435 176.187 879.06C267.846 890.135 363.231 877.104 453.786 866.359C548.771 855.132 647.164 841.483 743.747 849.256C812.221 854.76 879.497 874.242 943.212 892.125C1039.24 919.084 1133.09 950.226 1225.55 982.723C1284.58 1003.46 1343.75 1024.54 1402.04 1046.37C1517.92 1089.76 1631 1137.43 1745.68 1182.74C1830.37 1216.21 1920.24 1252.64 2015.23 1267.06C2028.41 1269.06 2043.01 1270.52 2056.19 1268.6C2084.07 1264.52 2072.89 1238.56 2064.81 1227.79C2063.59 1226.25 2062.26 1224.75 2060.81 1223.32C2036.45 1198.35 1999.02 1179.29 1964.54 1162.55C1948.47 1154.72 1931.57 1147.14 1914.87 1139.78C1756.23 1069.86 1589.2 1007.97 1420.87 949.997C1265.32 896.418 1106.71 844.438 943.776 804.507C863.057 784.728 787.285 769.47 701.384 774.127C631.147 777.938 562.003 789.292 493.187 799.122C407.075 811.425 314.792 824.676 227.34 810.494C180.218 802.873 134.787 784.965 100.838 760.131C63.1168 732.545 53.1518 695.053 55.3728 658.831C60.6138 573.643 113.435 488.202 149.629 404.683C167.561 363.338 172.5 340.954 176 296.228C176 254.406 165.743 208.111 149.629 179.822C122.5 132.194 89.5069 84.504 40.5075 46.7616C23.2898 33.6611 4.91992 21.3725 -14.4882 9.97202C-76.4758 -26.7159 -149.733 -59.0094 -228.713 -73.0817C-248.631 -76.621 -275.365 -79.7792 -294.519 -73.0394C-353.957 -52.1257 -212.484 14.3072 -192.777 26.1865" fill="#CD142B"/>
</g>
</svg>

<svg width="1440" height="1733" fill="none" xmlns="http://www.w3.org/2000/svg"><mask id="a" maskUnits="userSpaceOnUse" x="-864" y="0" width="3072" height="1733"><path fill="#C4C4C4" d="M-864 0h3072v1733H-864z"/></mask><g mask="url(#a)"><path d="M-505.847 135.991c47.717 45.893 85.812 95.792 117.718 147.918 22.883 37.407 42.019 76.72 62.4 114.533 34.267 63.517 51.159 132.615 71.082 199.799 22.449 75.712 46.742 152.517 85.132 224.427 21.344 39.948 45.814 78.896 86.142 111.4 43.91 35.383 99.357 59.486 160.653 76.032 126.165 34 263.806 45.01 396.866 55.51 69.742 5.53 139.614 10.24 209.345 15.85 58.736 4.74 122.852 6.51 178.803 21.17 110.717 28.98 198.246 99.84 272.696 162.51 25.13 21.17 50.96 41.98 76.72 62.67C1272.94 1376.93 1333 1429 1362 1503c13.79 35.19 75.97 198.92 86 199 41.5 34.5 98.96-36.09 107-61.5 37-117 11-180.5 0-197.5-17-18-19.33-18.66-34-34-14.67-15.34-15.76-11.87-22-18-68.3-67.2-173.23-127.79-260.96-183-92.48-58.28-192.17-113.23-299.812-154.59-36.698-14.08-75.511-27.39-116.297-34.92-37.978-6.99-78.941-8.13-117.929-9.98-89.196-4.23-178.85-4.44-267.988-6.78-112.314-2.883-230.244-6.355-337.283-33.871-53.673-13.796-103.175-36.12-141.072-67.048-35.041-28.608-51.182-66.558-60.709-103.262-22.272-85.663-12.84-174.528-19.512-261.588-3.324-43.42-9.973-87.061-25.996-129.083-14.731-38.644-39.682-74.756-64.774-110.156-31.717-44.783-67.205-89.33-110.517-127.991-14.571-12.878-31.034-24.58-49.103-34.9-40.939-23.578-85.296-46.3-134.763-59.562-17.879-4.793-37.72-8.706-56.022-10.205-26.56-2.185-2.585 19.919 3.313 25.237 17.62 15.897 37.062 30.7 54.577 46.664" fill="#979797"/><path d="M-349.988 111.15c63.228 42.147 119.583 88.706 164.131 141.224 29.252 34.485 57.565 72.424 72.485 110.973 25.234 65.193 18.796 137.16 16.447 205.622-2.597 75.488-6.356 152.222 10.925 225.653 9.328 39.633 29.864 76.2 72.133 104.377 39.684 26.475 87.722 44.247 139.483 54.873 108.951 22.352 226.242 20.43 338.447 19.524 60.279-.491 120.569-1.456 180.848-.694 54.252.685 112.099.491 165.059 9.906 147.484 26.242 284.61 94.982 407.65 156.062 43.4 21.55 87.28 42.97 130.29 64.85 69.31 35.25 135.1 74.38 204.03 110.28 59.57 31.04 124.23 58.92 196.76 69.65 15.66 2.32 32.59 4.32 47.96 3.11 21.55-1.69 53.52-7.37 57.09-26.99.22-1.12.29-2.26.23-3.39-1.18-19.36-26.93-36.87-44.14-49.67-10.93-8.01-22.46-15.58-34.53-22.68-123.81-74.05-264.67-136.58-405.14-194.74-143.58-59.35-292.07-115.389-445.505-158.552-85.455-24.037-167.349-40.42-259.912-39.794-77.818.551-155.401 7.459-232.609 12.7-95.711 6.503-197.777 13.623-291.584-6.426-49.835-10.651-96.263-31.183-131.154-59.072-35.244-28.109-45.312-66.81-44.89-102.692 1-85.276 42.693-171.027 64.18-256.286 10.185-40.412 17.762-81.814 13.545-122.953-4.1-39.963-24.06-74.21-48.883-109.22-33.752-47.651-73.695-94.107-121.85-134.138-16.256-13.473-34.511-25.622-54.44-36.228-52.866-28.211-113.685-53.214-181.341-57.227-21.37-1.27-46.405-.584-65.918 6.24-55.239 19.313 60.408 73.076 80.203 85.708z" fill="#00237C"/><path d="M-192.789 26.186C-119.45 71.773-51.046 121.484.659 179.822c31.188 35.198 62.775 75.543 71.483 116.406 14.947 70.099-16.558 146.057-40.753 215.817-26.1 75.231-65.126 157.488-54.056 233.354 5.453 37.534 25.853 67.872 68.756 92.35 37.822 21.473 82.583 35.686 130.098 41.311 91.659 11.075 187.044-1.956 277.599-12.701 94.985-11.227 193.378-24.876 289.961-17.103 68.474 5.504 135.75 24.986 199.465 42.869 96.028 26.959 189.878 58.101 282.338 90.598 59.03 20.737 118.2 41.817 176.49 63.647 115.88 43.39 228.96 91.06 343.64 136.37 84.69 33.47 174.56 69.9 269.55 84.32 13.18 2 27.78 3.46 40.96 1.54 27.88-4.08 16.7-30.04 8.62-40.81a49.046 49.046 0 00-4-4.47c-24.36-24.97-61.79-44.03-96.27-60.77-16.07-7.83-32.97-15.41-49.67-22.77-158.64-69.92-325.67-131.81-494-189.783-155.55-53.579-314.16-105.559-477.094-145.49-80.719-19.779-156.491-35.037-242.392-30.38-70.237 3.811-139.381 15.165-208.197 24.995-86.112 12.303-178.395 25.554-265.847 11.372-47.122-7.621-92.553-25.529-126.502-50.363-37.721-27.586-47.686-65.078-45.465-101.3 5.24-85.188 58.062-170.629 94.256-254.148C167.561 363.338 172.5 340.954 176 296.228c0-41.822-10.257-88.117-26.371-116.406C122.5 132.194 89.507 84.504 40.508 46.762 23.29 33.662 4.92 21.372-14.489 9.972c-61.988-36.688-135.245-68.981-214.225-83.054-19.918-3.539-46.652-6.697-65.806.043-59.438 20.913 82.035 87.346 101.742 99.225" fill="#CD142B"/></g></svg>
